Sources/FrostedUI/Resources/Icons.xcassets/volumeHigh32.imageset/volume-high-32.svg

<svg width="32" height="32" viewBox="0 0 32 32" fill="none" xmlns="http://www.w3.org/2000/svg" data-fui-icon="true">
  <path
    d="M14.0225 5.15454C15.2852 4.06016 17.25 4.95718 17.25 6.62817V25.3723C17.2498 27.0431 15.2851 27.9401 14.0225 26.8459L9.63672 23.0442C9.04583 22.5321 8.28974 22.2502 7.50781 22.2502H5.5C3.98132 22.2502 2.75016 21.0189 2.75 19.5002V12.5002C2.75 10.9815 3.98122 9.75024 5.5 9.75024H7.50781C8.28967 9.75024 9.04585 9.46832 9.63672 8.9563L14.0225 5.15454ZM15.75 6.62817C15.75 6.24257 15.2963 6.03578 15.0049 6.28833L10.6191 10.0901C9.75555 10.8385 8.65056 11.2502 7.50781 11.2502H5.5C4.80964 11.2502 4.25 11.8099 4.25 12.5002V19.5002C4.25016 20.1905 4.80974 20.7502 5.5 20.7502H7.50781C8.65062 20.7502 9.75553 21.1619 10.6191 21.9104L15.0049 25.7122C15.2962 25.9644 15.7498 25.7577 15.75 25.3723V6.62817ZM25.4434 8.49731C25.7211 8.1901 26.1957 8.16598 26.5029 8.4436L26.043 8.95239L26.5039 8.44458L26.5059 8.44653C26.5069 8.44741 26.5085 8.44833 26.5098 8.44946C26.5124 8.45195 26.5158 8.4557 26.5195 8.45923C26.5273 8.46647 26.5377 8.47588 26.5498 8.48755C26.5743 8.51121 26.6072 8.54431 26.6475 8.58618C26.7287 8.67061 26.8402 8.79318 26.9707 8.95239C27.2317 9.27089 27.5724 9.741 27.9102 10.3665C28.5876 11.6212 29.25 13.4928 29.25 16.0002C29.2499 18.5077 28.5876 20.3794 27.9102 21.634C27.5724 22.2595 27.2317 22.7296 26.9707 23.0481C26.8402 23.2073 26.7287 23.3299 26.6475 23.4143C26.6072 23.4562 26.5742 23.4893 26.5498 23.5129C26.5377 23.5246 26.5273 23.534 26.5195 23.5413C26.5158 23.5448 26.5124 23.5486 26.5098 23.551C26.5085 23.5521 26.5068 23.5531 26.5059 23.554L26.5029 23.5569C26.1957 23.8343 25.7211 23.8102 25.4434 23.5032C25.1658 23.1959 25.19 22.7213 25.4971 22.4436C25.4991 22.4416 25.5027 22.4388 25.5068 22.4348C25.5189 22.4232 25.5397 22.403 25.5674 22.3743C25.6228 22.3166 25.7069 22.2243 25.8105 22.0979C26.0182 21.8446 26.3028 21.4528 26.5898 20.9211C27.1623 19.8609 27.7499 18.2323 27.75 16.0002C27.75 13.7682 27.1623 12.1397 26.5898 11.0793C26.3028 10.5477 26.0182 10.156 25.8105 9.90259C25.7069 9.77619 25.6229 9.68389 25.5674 9.62622C25.5398 9.59751 25.5189 9.57735 25.5068 9.56567C25.5011 9.56011 25.4969 9.55658 25.4951 9.55493C25.1897 9.27702 25.1665 8.80396 25.4434 8.49731ZM21.4414 11.5002C21.7176 11.1917 22.1913 11.1655 22.5 11.4417L22.1787 11.801C22.4771 11.4676 22.4992 11.4432 22.501 11.4417V11.4426L22.5029 11.4436L22.5127 11.4534C22.5184 11.4586 22.5259 11.465 22.5342 11.4729C22.5511 11.4891 22.574 11.5111 22.6006 11.5383C22.6539 11.5928 22.7254 11.6698 22.8086 11.7688C22.9752 11.967 23.191 12.2562 23.4043 12.636C23.8325 13.3986 24.25 14.5243 24.25 16.0002C24.2499 17.4762 23.8325 18.6019 23.4043 19.3645C23.191 19.7443 22.9752 20.0335 22.8086 20.2317C22.7254 20.3307 22.6539 20.4077 22.6006 20.4622C22.574 20.4894 22.5511 20.5115 22.5342 20.5276C22.5259 20.5355 22.5184 20.5419 22.5127 20.5471L22.5029 20.5569L22.501 20.5579V20.5588C22.5005 20.5589 22.4902 20.5482 22 20.0002L22.5 20.5588C22.1914 20.8348 21.7176 20.8086 21.4414 20.5002C21.1655 20.1918 21.1911 19.7179 21.499 19.4417L21.5283 19.4124C21.5569 19.3831 21.6031 19.3347 21.6602 19.2668C21.7747 19.1305 21.9342 18.9176 22.0957 18.6301C22.4174 18.0573 22.7499 17.182 22.75 16.0002C22.75 14.8185 22.4174 13.9433 22.0957 13.3704C21.9342 13.0829 21.7747 12.87 21.6602 12.7336C21.6031 12.6658 21.557 12.6174 21.5283 12.5881L21.4951 12.5549L21.4971 12.5559L21.4453 12.5051C21.1892 12.2244 21.1827 11.7896 21.4414 11.5002Z"
    fill="currentColor"
  />
</svg>

<svg xmlns="http://www.w3.org/2000/svg" width="32" height="32" fill="none" data-fui-icon="true" viewBox="0 0 32 32"><path fill="currentColor" d="M14.023 5.155c1.262-1.095 3.227-.198 3.227 1.473v18.744c0 1.671-1.965 2.568-3.227 1.474l-4.386-3.802a3.25 3.25 0 0 0-2.13-.794H5.5a2.75 2.75 0 0 1-2.75-2.75v-7A2.75 2.75 0 0 1 5.5 9.75h2.008c.782 0 1.538-.282 2.129-.794zm1.727 1.473a.45.45 0 0 0-.745-.34l-4.386 3.802a4.75 4.75 0 0 1-3.111 1.16H5.5c-.69 0-1.25.56-1.25 1.25v7c0 .69.56 1.25 1.25 1.25h2.008a4.75 4.75 0 0 1 3.111 1.16l4.386 3.802a.45.45 0 0 0 .745-.34zm9.693 1.87a.75.75 0 0 1 1.06-.054l-.46.508.46-.507.003.002.004.002.01.01.03.029.098.098c.08.085.192.207.323.366.26.319.601.789.94 1.415.677 1.254 1.339 3.126 1.339 5.633s-.662 4.38-1.34 5.634a9 9 0 0 1-.94 1.414 6 6 0 0 1-.42.465l-.03.028-.01.01-.004.003-.003.003a.75.75 0 0 1-1.006-1.113l.01-.01q.019-.016.06-.06.086-.086.244-.276c.207-.253.492-.645.779-1.177.572-1.06 1.16-2.689 1.16-4.92 0-2.233-.588-3.861-1.16-4.922a7.4 7.4 0 0 0-.78-1.176 5 5 0 0 0-.243-.277l-.06-.06-.012-.011a.75.75 0 0 1-.052-1.058M21.441 11.5a.75.75 0 0 1 1.059-.058l-.321.359.322-.36v.002h.002l.01.01.021.02.067.065q.08.083.208.23c.166.199.382.488.595.868.428.763.846 1.888.846 3.364s-.418 2.602-.846 3.364c-.213.38-.429.67-.595.868a4 4 0 0 1-.275.296l-.021.02-.01.009H22.5v.002L22 20l.5.559a.75.75 0 0 1-1.001-1.117l.03-.03q.044-.043.131-.145c.115-.136.274-.35.436-.637.321-.573.654-1.448.654-2.63s-.333-2.057-.654-2.63a4 4 0 0 0-.436-.636 3 3 0 0 0-.132-.146l-.033-.033h.002l-.052-.05a.75.75 0 0 1-.004-1.005"/></svg>
